public/icons/activityfeed.svg

<?xml version="1.0" encoding="UTF-8"?>
<!-- This file is auto-generated from activityfeed folder -->
<svg xmlns="http://www.w3.org/2000/svg" xmlns:xlink="http://www.w3.org/1999/xlink" width="0" height="0">
<defs>
<symbol viewBox="0 0 24 24" fill="none" id="All"><path d="M13.5 3.75H10.5" stroke="#485F7D" stroke-width="1.6" stroke-linecap="round" stroke-linejoin="round"></path><path d="M10.5 20.25H13.5" stroke="#485F7D" stroke-width="1.6" stroke-linecap="round" stroke-linejoin="round"></path><path d="M17.25 3.75H19.5C19.6989 3.75 19.8897 3.82902 20.0303 3.96967C20.171 4.11032 20.25 4.30109 20.25 4.5V6.75" stroke="#485F7D" stroke-width="1.6" stroke-linecap="round" stroke-linejoin="round"></path><path d="M20.25 13.5V10.5" stroke="#485F7D" stroke-width="1.6" stroke-linecap="round" stroke-linejoin="round"></path><path d="M17.25 20.25H19.5C19.6989 20.25 19.8897 20.171 20.0303 20.0303C20.171 19.8897 20.25 19.6989 20.25 19.5V17.25" stroke="#485F7D" stroke-width="1.6" stroke-linecap="round" stroke-linejoin="round"></path><path d="M3.75 10.5V13.5" stroke="#485F7D" stroke-width="1.6" stroke-linecap="round" stroke-linejoin="round"></path><path d="M6.75 20.25H4.5C4.30109 20.25 4.11032 20.171 3.96967 20.0303C3.82902 19.8897 3.75 19.6989 3.75 19.5V17.25" stroke="#485F7D" stroke-width="1.6" stroke-linecap="round" stroke-linejoin="round"></path><path d="M6.75 3.75H4.5C4.30109 3.75 4.11032 3.82902 3.96967 3.96967C3.82902 4.11032 3.75 4.30109 3.75 4.5V6.75" stroke="#485F7D" stroke-width="1.6" stroke-linecap="round" stroke-linejoin="round"></path><path d="M16.5 7.5H7.5V16.5H16.5V7.5Z" stroke="#485F7D" stroke-width="1.6" stroke-linecap="round" stroke-linejoin="round"></path></symbol>
<symbol viewBox="0 0 24 24" fill="none" id="admin"><path fill-rule="evenodd" clip-rule="evenodd" d="M3 6.93088C3 5.49276 4.26544 4.37914 5.83653 3.66672C7.45376 2.93339 9.63395 2.5 12 2.5C14.366 2.5 16.5462 2.93339 18.1635 3.66672C19.7346 4.37914 21 5.49276 21 6.93088V17.0691C21 18.5072 19.7346 19.6209 18.1635 20.3333C16.5462 21.0666 14.366 21.5 12 21.5C9.63395 21.5 7.45376 21.0666 5.83653 20.3333C4.26544 19.6209 3 18.5072 3 17.0691V6.93088ZM4.54286 6.93088C4.54286 6.30827 5.11944 5.55627 6.52651 4.91823C7.88744 4.30111 9.82154 3.89922 12 3.89922C14.1785 3.89922 16.1126 4.30111 17.4735 4.91823C18.8806 5.55627 19.4571 6.30827 19.4571 6.93088C19.4571 7.55349 18.8806 8.30549 17.4735 8.94353C16.1126 9.56065 14.1785 9.96253 12 9.96253C9.82154 9.96253 7.88744 9.56065 6.52651 8.94353C5.11944 8.30549 4.54286 7.55349 4.54286 6.93088ZM4.54286 17.0691C4.54286 17.6917 5.11944 18.4437 6.52651 19.0818C7.88744 19.6989 9.82154 20.1008 12 20.1008C14.1785 20.1008 16.1126 19.6989 17.4735 19.0818C18.8806 18.4437 19.4571 17.6917 19.4571 17.0691V14.3167C19.0696 14.597 18.63 14.8439 18.1635 15.0555C16.5462 15.7888 14.366 16.2222 12 16.2222C9.63395 16.2222 7.45376 15.7888 5.83653 15.0555C5.36997 14.8439 4.93037 14.597 4.54286 14.3167V17.0691ZM19.4571 9.45621V11.7913C19.4571 12.4139 18.8806 13.166 17.4735 13.804C16.1126 14.4211 14.1785 14.823 12 14.823C9.82154 14.823 7.88744 14.4211 6.52651 13.804C5.11944 13.166 4.54286 12.4139 4.54286 11.7913V9.45621C4.93037 9.73653 5.36997 9.98347 5.83653 10.195C7.45376 10.9284 9.63395 11.3618 12 11.3618C14.366 11.3618 16.5462 10.9284 18.1635 10.195C18.63 9.98347 19.0696 9.73653 19.4571 9.45621Z" fill="#485F7D"></path></symbol>
<symbol viewBox="0 0 14 14" fill="none" id="commentdark"><path d="M0 10.1535V0.756108C0 0.588084 0.0758334 0.42006 0.2275 0.252036C0.379167 0.0840119 0.536667 0 0.7 0H9.7825C9.9575 0 10.1208 0.0810116 10.2725 0.243035C10.4242 0.405058 10.5 0.576082 10.5 0.756108V7.16502C10.5 7.33305 10.4242 7.50107 10.2725 7.6691C10.1208 7.83712 9.9575 7.92113 9.7825 7.92113H2.8L0.455 10.3335C0.373333 10.4175 0.277083 10.4385 0.16625 10.3965C0.0554166 10.3545 0 10.2735 0 10.1535ZM3.5175 11.5216C3.35417 11.5216 3.19375 11.4376 3.03625 11.2696C2.87875 11.1016 2.8 10.9336 2.8 10.7655V9.00129H11.55V2.88041H13.3C13.4633 2.88041 13.6208 2.96442 13.7725 3.13245C13.9242 3.30047 14 3.4745 14 3.65452V13.736C14 13.856 13.9446 13.937 13.8338 13.979C13.7229 14.021 13.6267 14 13.545 13.916L11.2175 11.5216H3.5175ZM9.45 1.08015H1.05V6.84098H9.45V1.08015Z" fill="#FF4098"></path></symbol>
<symbol viewBox="0 0 16 14" fill="none" id="vote"><path d="M5.08012 7.69153L2.04954 5.57017C1.97679 5.5192 1.92724 5.44143 1.91177 5.35395C1.8963 5.26647 1.91618 5.17642 1.96705 5.10359L4.229 1.87299C4.25413 1.8369 4.28613 1.80611 4.32317 1.78241C4.36021 1.7587 4.40157 1.74253 4.44487 1.73483C4.48817 1.72712 4.53256 1.72803 4.5755 1.73751C4.61845 1.74699 4.6591 1.76484 4.69514 1.79005L7.72705 3.91096C7.7999 3.96196 7.84955 4.03977 7.8651 4.12733C7.88065 4.21488 7.86083 4.30503 7.80999 4.37799L5.54803 7.60904C5.52278 7.64525 5.49063 7.67612 5.45342 7.69987C5.41621 7.72363 5.37468 7.7398 5.33121 7.74746C5.28773 7.75513 5.24317 7.75413 5.20008 7.74454C5.157 7.73494 5.11623 7.71692 5.08012 7.69153Z" fill="#E5007A"></path><path d="M6.88658 6.33392C7.056 6.08998 7.22276 5.85048 7.39352 5.60566C7.43185 5.54904 7.4905 5.50936 7.5573 5.49482C7.62411 5.48029 7.69394 5.49202 7.75233 5.5276H7.75455C10.1433 7.04946 12.5316 8.57222 14.9192 10.0959C15.5845 10.5207 15.6967 11.3617 15.16 11.8602C14.7573 12.2345 14.1701 12.2443 13.6853 11.8735C12.1581 10.7053 10.6324 9.53525 9.10817 8.36347L6.94512 6.70603C6.88929 6.6635 6.85204 6.60106 6.84113 6.53173C6.83022 6.4624 6.8465 6.39153 6.88658 6.33392Z" fill="#E5007A"></path><path d="M8.25661 13.872H0.891511C0.856029 13.1153 1.50357 12.4297 2.31078 12.419C3.82052 12.4001 5.33041 12.4001 6.84045 12.419C7.64056 12.4301 8.29874 13.1282 8.25661 13.872Z" fill="#E5007A"></path><path d="M9.18623 3.3743C9.13735 3.44874 9.07065 3.5098 8.99219 3.55193C8.91373 3.59407 8.826 3.61594 8.73694 3.61558C8.5711 3.60952 8.41107 3.55288 8.27834 3.45325C7.73488 3.07537 7.19216 2.69675 6.65018 2.3174C6.07686 1.91645 5.50279 1.51581 4.92799 1.11545C4.52882 0.838698 4.58382 0.545088 4.65123 0.395178C4.7047 0.289882 4.78036 0.197428 4.87299 0.124187C4.9636 0.04417 5.08032 7.14833e-06 5.2012 1.30389e-06C5.26767 -0.000152375 5.33348 0.0132802 5.39457 0.0394746C5.46839 0.0689808 5.53899 0.105987 5.60525 0.149911C6.65949 0.882163 7.75454 1.64812 8.95382 2.4917C9.30066 2.73475 9.39158 3.08114 9.18623 3.3743Z" fill="#E5007A"></path><path d="M5.0912 9.26293C5.04611 9.33012 4.98716 9.3869 4.91831 9.42943C4.84946 9.47196 4.77231 9.49927 4.69204 9.50952C4.66866 9.51257 4.6451 9.51405 4.62152 9.51396C4.47306 9.5105 4.32931 9.46123 4.20993 9.37292C3.52513 8.89525 2.83014 8.40782 2.1582 7.93591C1.70315 7.61628 1.24751 7.29665 0.791275 6.97702C0.520728 6.78808 0.432024 6.52463 0.553105 6.27227C0.596666 6.18827 0.657055 6.11414 0.730513 6.0545C0.830268 5.96711 0.956335 5.91551 1.08874 5.90788C1.22114 5.90024 1.3523 5.93701 1.46143 6.01236L1.48938 6.03144C2.61636 6.81469 3.75887 7.61303 4.88497 8.40471C5.21317 8.6349 5.29389 8.97198 5.0912 9.26293Z" fill="#E5007A"></path></symbol>
</defs>
</svg>

<?xml version="1.0" encoding="UTF-8"?>
<!-- This file is auto-generated from activityfeed folder -->
<svg xmlns="http://www.w3.org/2000/svg" xmlns:xlink="http://www.w3.org/1999/xlink" width="0" height="0">
<defs>
<symbol fill="none" viewBox="0 0 24 24" id="All"><path stroke="#485F7D" stroke-linecap="round" stroke-linejoin="round" stroke-width="1.6" d="M13.5 3.75h-3m0 16.5h3m3.75-16.5h2.25a.75.75 0 0 1 .75.75v2.25m0 6.75v-3m-3 9.75h2.25a.75.75 0 0 0 .75-.75v-2.25M3.75 10.5v3m3 6.75H4.5a.75.75 0 0 1-.75-.75v-2.25m3-13.5H4.5a.75.75 0 0 0-.75.75v2.25m12.75.75h-9v9h9z"></path></symbol>
<symbol fill="none" viewBox="0 0 24 24" id="admin"><path fill="#485F7D" fill-rule="evenodd" d="M3 6.93c0-1.437 1.265-2.55 2.837-3.263C7.454 2.933 9.634 2.5 12 2.5s4.546.433 6.163 1.167C19.735 4.379 21 5.493 21 6.93v10.138c0 1.438-1.265 2.552-2.837 3.264-1.617.734-3.797 1.167-6.163 1.167s-4.546-.433-6.163-1.167C4.265 19.621 3 18.507 3 17.07V6.931zm1.543 0c0-.622.576-1.374 1.984-2.012C7.887 4.301 9.822 3.9 12 3.9s4.113.402 5.474 1.02c1.407.637 1.983 1.39 1.983 2.012s-.576 1.374-1.983 2.013c-1.361.617-3.296 1.019-5.474 1.019s-4.113-.402-5.473-1.02c-1.408-.638-1.984-1.39-1.984-2.012zm0 10.14c0 .622.576 1.374 1.984 2.012C7.887 19.699 9.822 20.1 12 20.1s4.113-.402 5.474-1.02c1.407-.637 1.983-1.39 1.983-2.012v-2.752a7.5 7.5 0 0 1-1.294.739c-1.617.733-3.797 1.166-6.163 1.166s-4.546-.433-6.163-1.167a7.5 7.5 0 0 1-1.294-.738v2.752zm14.914-7.614v2.335c0 .623-.576 1.375-1.983 2.013-1.361.617-3.296 1.019-5.474 1.019s-4.113-.402-5.473-1.019c-1.408-.638-1.984-1.39-1.984-2.013V9.456c.387.28.827.527 1.294.739 1.617.733 3.797 1.167 6.163 1.167s4.546-.434 6.163-1.167a7.5 7.5 0 0 0 1.294-.739" clip-rule="evenodd"></path></symbol>
<symbol fill="none" viewBox="0 0 14 14" id="commentdark"><path fill="#FF4098" d="M0 10.153V.756Q0 .504.228.252.454 0 .7 0h9.083q.262 0 .49.243t.227.513v6.409q0 .252-.227.504-.229.252-.49.252H2.8L.455 10.334a.25.25 0 0 1-.289.063.24.24 0 0 1-.166-.244m3.518 1.369q-.245 0-.482-.252-.236-.252-.236-.505V9.002h8.75v-6.12h1.75q.244 0 .473.251.227.252.227.523v10.081q0 .18-.166.243a.25.25 0 0 1-.289-.063l-2.328-2.394zM9.45 1.08h-8.4v5.761h8.4v-5.76z"></path></symbol>
<symbol fill="none" viewBox="0 0 16 14" id="vote"><path fill="#E5007A" d="M5.08 7.692 2.05 5.57a.335.335 0 0 1-.083-.466l2.262-3.231a.334.334 0 0 1 .466-.083l3.032 2.121a.336.336 0 0 1 .083.467L5.548 7.609a.335.335 0 0 1-.468.083m1.807-1.358.507-.728a.266.266 0 0 1 .358-.078h.003a7845 7845 0 0 1 7.164 4.568c.665.425.778 1.266.241 1.764-.403.375-.99.384-1.475.014a2386 2386 0 0 1-4.577-3.51L6.945 6.705a.27.27 0 0 1-.058-.372zm1.37 7.538H.892c-.036-.757.612-1.442 1.419-1.453q2.265-.028 4.53 0c.8.011 1.458.71 1.416 1.453m.929-10.498a.54.54 0 0 1-.45.242.8.8 0 0 1-.458-.163q-.815-.566-1.628-1.136L4.928 1.115c-.4-.276-.344-.57-.277-.72a.8.8 0 0 1 .222-.27.5.5 0 0 1 .522-.086q.11.045.21.11c1.054.733 2.15 1.5 3.349 2.343.347.243.438.59.232.882M5.091 9.263a.57.57 0 0 1-.47.251.72.72 0 0 1-.411-.141c-.685-.478-1.38-.965-2.052-1.437q-.682-.48-1.367-.959c-.27-.189-.359-.452-.238-.705a.7.7 0 0 1 .178-.218.596.596 0 0 1 .73-.042l.028.02a720 720 0 0 1 3.396 2.373c.328.23.409.567.206.858"></path></symbol>
</defs>
</svg>
